;FLAVOR:Marlin
;TIME:8211
;Filament used: 5.89299m
;Layer height: 0.15
;MINX:75.538
;MINY:54.42
;MINZ:0.2
;MAXX:189.991
;MAXY:162.696
;MAXZ:18.95
;Generated with Cura_SteamEngine master
M82 ;absolute extrusion mode
G21 ; set units to millimeters
G90 ; use absolute positioning
M82 ; absolute extrusion mode
M104 S215.0 ; set extruder temp
M140 S60 ; set bed temp
M190 S60 ; wait for bed temp
M109 S215.0 ; wait for extruder temp
G28 W ; home all without mesh bed level
G80 ; mesh bed leveling
G92 E0.0 ; reset extruder distance position
G1 Y-3.0 F1000.0 ; go outside print area
G1 X60.0 E9.0 F1000.0 ; intro line
G1 X100.0 E21.5 F1000.0 ; intro line
G92 E0.0 ; reset extruder distance position
G92 E0
G92 E0
G1 F2100 E-0.8
;LAYER_COUNT:126
;LAYER:0
M107
G0 F3600 X89.674 Y58.258 Z0.2
;TYPE:SKIRT
G1 F2100 E0
G1 F1800 X90.051 Y57.719 E0.02188
G1 X90.404 Y57.31 E0.03985
G1 X90.903 Y56.843 E0.06258
G1 X91.314 Y56.534 E0.07968
G1 X91.888 Y56.19 E0.10194
G1 X92.372 Y55.965 E0.11969
G1 X93.002 Y55.749 E0.14184
G1 X93.488 Y55.637 E0.15843
G1 X94.145 Y55.556 E0.18045
G1 X94.665 Y55.546 E0.19775
G1 X95.336 Y55.604 E0.22015
G1 X95.989 Y55.73 E0.24227
G1 X98.757 Y56.227 E0.3358
G1 X101.441 Y56.631 E0.42608
G1 X104.139 Y56.96 E0.51648
G1 X106.886 Y57.216 E0.60824
G1 X109.599 Y57.392 E0.69866
G1 X112.345 Y57.491 E0.79006
G1 X115.101 Y57.514 E0.88172
G1 X117.818 Y57.459 E0.97211
G1 X120.532 Y57.327 E1.06248
G1 X123.313 Y57.113 E1.15525
G1 X125.986 Y56.831 E1.24465
G1 X128.745 Y56.461 E1.33724
G1 X131.401 Y56.028 E1.42674
G1 X133.163 Y55.699 E1.48636
G1 X133.601 Y55.614 E1.5012
G1 X134.151 Y55.556 E1.5196
G1 X134.666 Y55.546 E1.53673
G1 X135.343 Y55.605 E1.55933
G1 X135.864 Y55.707 E1.57699
G1 X136.492 Y55.898 E1.59882
G1 X136.971 Y56.1 E1.61611
G1 X137.565 Y56.429 E1.63869
G1 X137.97 Y56.713 E1.65515
G1 X138.465 Y57.142 E1.67693
G1 X138.836 Y57.537 E1.69496
G1 X139.246 Y58.078 E1.71753
G1 X139.509 Y58.515 E1.7345
G1 X139.787 Y59.108 E1.75628
G1 X139.955 Y59.588 E1.7732
G1 X140.111 Y60.25 E1.79582
G1 X140.179 Y60.797 E1.81415
G1 X140.191 Y61.466 E1.8364
G1 X140.142 Y62.02 E1.8549
G1 X139.968 Y63.494 E1.90427
G1 X139.699 Y66.007 E1.98833
G1 X139.484 Y68.722 E2.07891
G1 X139.346 Y71.469 E2.17039
G1 X139.285 Y74.189 E2.26088
G1 X139.303 Y76.941 E2.35242
G1 X139.396 Y79.66 E2.4429
G1 X139.568 Y82.403 E2.53432
G1 X139.818 Y85.147 E2.62596
G1 X140.142 Y87.845 E2.71634
G1 X140.543 Y90.538 E2.8069
G1 X141.027 Y93.264 E2.89898
G1 X141.574 Y95.913 E2.98895
G1 X142.208 Y98.593 E3.08055
G1 X142.919 Y101.256 E3.17222
G1 X143.697 Y103.871 E3.26296
G1 X144.544 Y106.449 E3.35322
G1 X145.478 Y109.045 E3.44498
G1 X146.479 Y111.596 E3.53612
G1 X147.547 Y114.108 E3.62691
G1 X148.69 Y116.597 E3.71801
G1 X149.912 Y119.072 E3.80981
G1 X151.178 Y121.464 E3.89983
G1 X152.533 Y123.855 E3.99123
G1 X153.959 Y126.215 E4.08294
G1 X155.425 Y128.493 E4.17304
G1 X156.978 Y130.763 E4.26452
G1 X158.588 Y132.978 E4.3556
G1 X160.251 Y135.136 E4.44621
G1 X161.992 Y137.267 E4.53774
G1 X163.785 Y139.338 E4.62885
G1 X165.63 Y141.354 E4.71974
G1 X167.53 Y143.315 E4.81056
G1 X169.491 Y145.226 E4.90163
G1 X171.525 Y147.1 E4.99362
G1 X173.566 Y148.876 E5.0836
G1 X175.986 Y150.856 E5.1876
G1 X176.782 Y151.487 E5.22139
G1 X177.127 Y151.805 E5.23699
G1 X177.511 Y152.214 E5.25565
G1 X177.92 Y152.754 E5.27818
G1 X178.183 Y153.191 E5.29515
G1 X178.461 Y153.784 E5.31693
G1 X178.629 Y154.264 E5.33384
G1 X178.785 Y154.926 E5.35646
G1 X178.853 Y155.473 E5.3748
G1 X178.864 Y156.152 E5.39738
G1 X178.82 Y156.646 E5.41388
G1 X178.697 Y157.284 E5.43549
G1 X178.548 Y157.779 E5.45268
G1 X178.285 Y158.405 E5.47527
G1 X178.007 Y158.908 E5.49438
G1 X177.647 Y159.43 E5.51547
G1 X177.232 Y159.891 E5.5361
G1 X176.816 Y160.265 E5.55471
G1 X176.384 Y160.59 E5.57269
G1 X175.808 Y160.935 E5.59502
G1 X175.315 Y161.164 E5.6131
G1 X174.726 Y161.371 E5.63387
G1 X174.107 Y161.504 E5.65492
G1 X173.543 Y161.563 E5.67378
G1 X173.022 Y161.571 E5.69112
G1 X172.369 Y161.514 E5.71292
G1 X171.578 Y161.362 E5.73971
G1 X168.888 Y160.88 E5.8306
G1 X166.171 Y160.475 E5.92197
G1 X163.433 Y160.144 E6.0137
G1 X160.762 Y159.897 E6.10291
G1 X157.978 Y159.72 E6.1957
G1 X155.262 Y159.624 E6.28609
G1 X152.51 Y159.605 E6.37762
G1 X149.792 Y159.663 E6.46804
G1 X147.039 Y159.799 E6.55972
G1 X144.334 Y160.009 E6.64996
G1 X141.594 Y160.302 E6.74161
G1 X138.896 Y160.666 E6.83216
G1 X136.185 Y161.111 E6.92354
G1 X134.693 Y161.389 E6.97401
G1 X134.102 Y161.504 E6.99404
G1 X133.541 Y161.563 E7.0128
G1 X133.022 Y161.571 E7.03007
G1 X132.369 Y161.514 E7.05187
G1 X131.578 Y161.362 E7.07866
G1 X128.888 Y160.88 E7.16955
G1 X126.171 Y160.475 E7.26092
G1 X123.433 Y160.144 E7.35265
G1 X120.762 Y159.897 E7.44186
G1 X117.978 Y159.72 E7.53465
G1 X115.262 Y159.624 E7.62504
G1 X112.51 Y159.605 E7.71657
G1 X109.792 Y159.663 E7.80699
G1 X107.039 Y159.799 E7.89867
G1 X104.334 Y160.009 E7.98891
G1 X101.594 Y160.302 E8.08056
G1 X98.896 Y160.666 E8.17111
G1 X96.185 Y161.111 E8.26249
G1 X94.693 Y161.389 E8.31296
G1 X94.102 Y161.504 E8.33299
G1 X93.542 Y161.563 E8.35172
G1 X93.026 Y161.571 E8.36888
G1 X92.37 Y161.513 E8.39079
G1 X91.872 Y161.417 E8.40765
G1 X91.234 Y161.223 E8.42983
G1 X90.722 Y161.007 E8.44832
G1 X90.12 Y160.673 E8.47121
G1 X89.722 Y160.392 E8.48742
G1 X89.233 Y159.966 E8.50899
G1 X88.878 Y159.587 E8.52626
G1 X88.477 Y159.058 E8.54834
G1 X88.209 Y158.616 E8.56553
G1 X87.923 Y158.01 E8.58782
G1 X87.746 Y157.502 E8.60571
G1 X87.593 Y156.845 E8.62815
G1 X87.532 Y156.356 E8.64454
G1 X87.519 Y155.687 E8.66679
G1 X87.566 Y155.139 E8.68509
G1 X87.692 Y154.482 E8.70734
G1 X87.76 Y154.258 E8.71512
G1 X88.518 Y151.622 E8.80635
G1 X89.195 Y148.985 E8.8969
G1 X89.804 Y146.31 E8.98815
G1 X90.331 Y143.645 E9.0785
G1 X90.798 Y140.877 E9.17187
G1 X91.169 Y138.211 E9.26139
G1 X91.47 Y135.497 E9.35222
G1 X91.696 Y132.757 E9.44366
G1 X91.842 Y130.041 E9.53412
G1 X91.912 Y127.289 E9.62568
G1 X91.904 Y124.536 E9.71725
G1 X91.819 Y121.818 E9.8077
G1 X91.658 Y119.105 E9.89809
G1 X91.417 Y116.361 E9.98971
G1 X91.098 Y113.623 E10.08139
G1 X90.704 Y110.91 E10.17257
G1 X90.239 Y108.243 E10.26261
G1 X89.697 Y105.574 E10.3532
G1 X89.03 Y102.724 E10.45055
G1 X88.927 Y102.219 E10.46769
G1 X88.859 Y101.677 E10.48586
G1 X88.845 Y101.009 E10.50808
G1 X88.895 Y100.419 E10.52778
G1 X88.933 Y100.129 E10.5375
G1 X89.087 Y99.268 E10.56659
G1 X89.301 Y98.155 E10.60429
G1 X89.738 Y95.476 E10.69457
G1 X90.108 Y92.717 E10.78716
G1 X90.39 Y90.044 E10.87656
G1 X90.604 Y87.263 E10.96933
G1 X90.737 Y84.547 E11.05977
G1 X90.792 Y81.831 E11.15012
G1 X90.769 Y79.076 E11.24176
G1 X90.67 Y76.328 E11.33322
G1 X90.494 Y73.61 E11.42381
G1 X90.243 Y70.909 E11.51403
G1 X89.903 Y68.121 E11.60745
G1 X89.505 Y65.476 E11.69641
G1 X89.087 Y63.122 E11.77593
G1 X88.969 Y62.498 E11.79705
G1 X88.938 Y62.303 E11.80362
G1 X88.859 Y61.676 E11.82464
G1 X88.845 Y61.006 E11.84693
G1 X88.89 Y60.475 E11.86465
G1 X89.017 Y59.817 E11.88694
G1 X89.167 Y59.322 E11.90414
G1 X89.43 Y58.698 E11.92666
G1 X89.674 Y58.258 E11.9434
G1 F2100 E11.1434
;MESH:corner_joint_dowel_long.stl
G0 F3600 X91.86 Y59.522
G0 X92.955 Y60.154
G0 X95.071 Y62.928
G1 F2100 E11.9434
G0 F3600 X95.101 Y63.023
;TYPE:WALL-INNER
G1 F1800 X94.708 Y63.106 E11.95676
G1 X94.315 Y63.105 E11.96983
G1 X93.926 Y63.022 E11.98306
G1 X93.568 Y62.862 E11.9961
G1 X93.249 Y62.629 E12.00924
G1 X92.981 Y62.333 E12.02252
G1 X92.785 Y61.99 E12.03566
G1 X92.663 Y61.617 E12.04871
G1 X92.62 Y61.22 E12.06199
G1 X92.663 Y60.823 E12.07528
G1 X92.785 Y60.448 E12.08839
G1 X92.982 Y60.107 E12.10149
G1 X93.252 Y59.807 E12.11491
G1 X93.57 Y59.577 E12.12797
G1 X93.935 Y59.416 E12.14124
G1 X94.324 Y59.334 E12.15446
G1 X94.718 Y59.335 E12.16756
G1 X95.106 Y59.418 E12.18076
G1 X95.471 Y59.582 E12.19407
G1 X95.785 Y59.81 E12.20698
G1 X96.054 Y60.108 E12.22033
G1 X96.25 Y60.45 E12.23344
G1 X96.372 Y60.823 E12.24649
G1 X96.414 Y61.22 E12.25977
G1 X96.372 Y61.62 E12.27315
G1 X96.255 Y61.982 E12.2858
G1 X96.05 Y62.337 E12.29943
G1 X95.786 Y62.63 E12.31255
G1 X95.462 Y62.863 E12.32583
G1 X95.101 Y63.023 E12.33896
G0 F3600 X95.224 Y63.407
;TYPE:WALL-OUTER
G1 F1800 X94.751 Y63.506 E12.35503
G1 X94.274 Y63.505 E12.3709
G1 X93.799 Y63.404 E12.38705
G1 X93.367 Y63.21 E12.4028
G1 X92.98 Y62.928 E12.41873
G1 X92.656 Y62.57 E12.43478
G1 X92.418 Y62.155 E12.4507
G1 X92.269 Y61.699 E12.46665
G1 X92.218 Y61.22 E12.48267
G1 X92.269 Y60.741 E12.4987
G1 X92.418 Y60.285 E12.51465
G1 X92.658 Y59.869 E12.53063
G1 X92.982 Y59.509 E12.54673
G1 X93.371 Y59.228 E12.56269
G1 X93.811 Y59.034 E12.57869
G1 X94.284 Y58.934 E12.59477
G1 X94.76 Y58.935 E12.6106
G1 X95.232 Y59.036 E12.62665
G1 X95.673 Y59.234 E12.64273
G1 X96.053 Y59.51 E12.65835
G1 X96.379 Y59.871 E12.67453
G1 X96.617 Y60.285 E12.69041
G1 X96.766 Y60.741 E12.70637
G1 X96.816 Y61.22 E12.72239
G1 X96.766 Y61.7 E12.73844
G1 X96.62 Y62.15 E12.75417
G1 X96.377 Y62.572 E12.77037
G1 X96.053 Y62.931 E12.78646
G1 X95.663 Y63.212 E12.80244
G1 X95.224 Y63.407 E12.81842
G0 F3600 X95.029 Y63.447
G0 X94.98 Y62.649
;TYPE:SKIN
G1 F1800 X94.666 Y62.716 E12.8291
G1 X94.361 Y62.715 E12.83924
G1 X94.046 Y62.648 E12.84995
G1 X93.768 Y62.523 E12.86009
G1 X93.509 Y62.335 E12.87074
G1 X93.298 Y62.103 E12.88117
G1 X93.144 Y61.832 E12.89153
G1 X93.047 Y61.535 E12.90193
G1 X93.012 Y61.22 E12.91247
G1 X93.047 Y60.904 E12.92304
G1 X93.144 Y60.608 E12.9334
G1 X93.3 Y60.337 E12.9438
G1 X93.515 Y60.097 E12.95452
G1 X93.762 Y59.919 E12.96465
G1 X94.056 Y59.79 E12.97532
G1 X94.366 Y59.724 E12.98587
G1 X94.674 Y59.725 E12.99611
G1 X94.989 Y59.792 E13.00682
G1 X95.268 Y59.918 E13.017
G1 X95.528 Y60.106 E13.02768
G1 X95.735 Y60.336 E13.03797
G1 X95.891 Y60.608 E13.0484
G1 X95.988 Y60.906 E13.05882
G1 X96.022 Y61.22 E13.06932
G1 X95.988 Y61.539 E13.07999
G1 X95.896 Y61.823 E13.08992
G1 X95.733 Y62.106 E13.10079
G1 X95.523 Y62.34 E13.11124
G1 X95.27 Y62.521 E13.12159
G1 X94.98 Y62.649 E13.13213
G0 F3600 X94.167 Y62.489
G1 F1800 X93.245 Y61.567 E13.1755
G0 F3600 X93.219 Y60.975
G1 F1800 X94.755 Y62.511 E13.24775
G0 F3600 X95.175 Y62.365
G1 F1800 X93.374 Y60.565 E13.33244
G0 F3600 X93.621 Y60.246
G1 F1800 X95.486 Y62.11 E13.42014
G0 F3600 X95.716 Y61.774
G1 F1800 X93.966 Y60.025 E13.50243
G0 F3600 X94.411 Y59.904
G1 F1800 X95.829 Y61.323 E13.56915
G0 F3600 X95.684 Y60.612
G1 F1800 X95.123 Y60.051 E13.59554
G1 F2100 E12.79554
G0 F3600 X94.706 Y63.087
G0 X94.705 Y64.371
G0 X94.614 Y98.069
G0 X94.613 Y99.354
G0 X95.071 Y102.928
G1 F2100 E13.59554
G0 F3600 X95.101 Y103.023
;TYPE:WALL-INNER
G1 F1800 X94.708 Y103.106 E13.6089
G1 X94.315 Y103.105 E13.62197
G1 X93.926 Y103.022 E13.6352
G1 X93.568 Y102.862 E13.64824
G1 X93.249 Y102.629 E13.66138
G1 X92.981 Y102.333 E13.67466
G1 X92.785 Y101.99 E13.6878
G1 X92.663 Y101.617 E13.70085
G1 X92.62 Y101.22 E13.71414
G1 X92.663 Y100.823 E13.72742
G1 X92.785 Y100.448 E13.74053
G1 X92.982 Y100.107 E13.75363
G1 X93.252 Y99.807 E13.76706
G1 X93.57 Y99.577 E13.78011
G1 X93.935 Y99.416 E13.79338
G1 X94.324 Y99.334 E13.8066
G1 X94.718 Y99.335 E13.8197
G1 X95.106 Y99.418 E13.8329
G1 X95.471 Y99.582 E13.84621
G1 X95.785 Y99.81 E13.85912
G1 X96.054 Y100.108 E13.87247
G1 X96.25 Y100.45 E13.88558
G1 X96.372 Y100.823 E13.89863
G1 X96.414 Y101.22 E13.91191
G1 X96.372 Y101.62 E13.92529
G1 X96.255 Y101.982 E13.93794
G1 X96.05 Y102.337 E13.95158
G1 X95.786 Y102.63 E13.96469
G1 X95.462 Y102.863 E13.97797
G1 X95.101 Y103.023 E13.9911
G0 F3600 X95.224 Y103.407
;TYPE:WALL-OUTER
G1 F1800 X94.751 Y103.506 E14.00717
G1 X94.274 Y103.505 E14.02304
G1 X93.799 Y103.404 E14.03919
G1 X93.367 Y103.21 E14.05494
G1 X92.98 Y102.928 E14.07087
G1 X92.656 Y102.57 E14.08693
G1 X92.418 Y102.155 E14.10284
G1 X92.269 Y101.699 E14.11879
G1 X92.218 Y101.22 E14.13482
G1 X92.269 Y100.741 E14.15084
G1 X92.418 Y100.285 E14.16679
G1 X92.658 Y99.869 E14.18277
G1 X92.982 Y99.509 E14.19888
G1 X93.371 Y99.228 E14.21484
G1 X93.811 Y99.034 E14.23083
G1 X94.284 Y98.934 E14.24691
G1 X94.76 Y98.935 E14.26274
G1 X95.232 Y99.036 E14.2788
G1 X95.673 Y99.234 E14.29488
G1 X96.053 Y99.51 E14.3105
G1 X96.379 Y99.871 E14.32667
G1 X96.617 Y100.285 E14.34256
G1 X96.766 Y100.741 E14.35851
G1 X96.816 Y101.22 E14.37453
G1 X96.766 Y101.7 E14.39058
G1 X96.62 Y102.15 E14.40632
G1 X96.377 Y102.572 E14.42251
G1 X96.053 Y102.931 E14.4386
G1 X95.663 Y103.212 E14.45459
G1 X95.224 Y103.407 E14.47056
G0 F3600 X95.029 Y103.447
G0 X94.98 Y102.649
;TYPE:SKIN
G1 F1800 X94.666 Y102.716 E14.48124
G1 X94.361 Y102.715 E14.49139
G1 X94.046 Y102.648 E14.5021
G1 X93.768 Y102.523 E14.51223
G1 X93.509 Y102.335 E14.52288
G1 X93.298 Y102.103 E14.53331
G1 X93.144 Y101.832 E14.54368
G1 X93.047 Y101.535 E14.55407
G1 X93.012 Y101.22 E14.56461
G1 X93.047 Y100.904 E14.57518
G1 X93.144 Y100.608 E14.58554
G1 X93.3 Y100.337 E14.59595
G1 X93.515 Y100.097 E14.60666
G1 X93.762 Y99.919 E14.61679
G1 X94.056 Y99.79 E14.62747
G1 X94.366 Y99.724 E14.63801
G1 X94.674 Y99.725 E14.64825
G1 X94.989 Y99.792 E14.65896
G1 X95.268 Y99.918 E14.66915
G1 X95.528 Y100.106 E14.67982
G1 X95.735 Y100.336 E14.69011
G1 X95.891 Y100.608 E14.70054
G1 X95.988 Y100.906 E14.71096
G1 X96.022 Y101.22 E14.72147
G1 X95.988 Y101.539 E14.73214
G1 X95.896 Y101.823 E14.74207
G1 X95.733 Y102.106 E14.75293
G1 X95.523 Y102.34 E14.76339
G1 X95.27 Y102.521 E14.77373
G1 X94.98 Y102.649 E14.78428
G0 F3600 X93.898 Y102.383
G1 F1800 X93.359 Y101.844 E14.80963
G0 F3600 X93.203 Y101.123
G1 F1800 X94.615 Y102.534 E14.87602
G0 F3600 X95.061 Y102.415
G1 F1800 X93.316 Y100.67 E14.9581
G0 F3600 X93.544 Y100.332
G1 F1800 X95.409 Y102.197 E15.04582
G0 F3600 X95.656 Y101.879
G1 F1800 X93.852 Y100.075 E15.13068
G0 F3600 X94.271 Y99.928
G1 F1800 X95.814 Y101.471 E15.20326
G0 F3600 X95.792 Y100.883
G1 F1800 X94.856 Y99.948 E15.24726
G1 X94.786 Y99.878
G1 F2100 E14.44726
G0 F3600 X95.772 Y99.824
G0 X96.726 Y98.965
G0 X134.049 Y64.342
G0 X134.317 Y63.086
G1 F2100 E15.24726
G0 F3600 X135.101 Y63.023
;TYPE:WALL-INNER
G1 F1800 X134.708 Y63.106 E15.26062
G1 X134.315 Y63.105 E15.27369
G1 X133.926 Y63.022 E15.28692
G1 X133.568 Y62.862 E15.29996
G1 X133.249 Y62.629 E15.3131
G1 X132.981 Y62.333 E15.32638
G1 X132.785 Y61.99 E15.33952
G1 X132.663 Y61.617 E15.35257
G1 X132.62 Y61.22 E15.36586
G1 X132.663 Y60.823 E15.37914
G1 X132.785 Y60.448 E15.39225
G1 X132.982 Y60.107 E15.40535
G1 X133.252 Y59.807 E15.41878
G1 X133.57 Y59.577 E15.43183
G1 X133.935 Y59.416 E15.4451
G1 X134.324 Y59.334 E15.45832
G1 X134.718 Y59.335 E15.47142
G1 X135.106 Y59.418 E15.48462
G1 X135.471 Y59.582 E15.49793
G1 X135.785 Y59.81 E15.51084
G1 X136.054 Y60.108 E15.52419
G1 X136.25 Y60.45 E15.5373
G1 X136.372 Y60.823 E15.55035
G1 X136.414 Y61.22 E15.56363
G1 X136.372 Y61.62 E15.57701
G1 X136.255 Y61.982 E15.58966
G1 X136.05 Y62.337 E15.6033
G1 X135.786 Y62.63 E15.61641
G1 X135.462 Y62.863 E15.62969
G1 X135.101 Y63.023 E15.64282
G0 F3600 X135.224 Y63.407
;TYPE:WALL-OUTER
G1 F1800 X134.751 Y63.506 E15.65889
G1 X134.274 Y63.505 E15.67476
G1 X133.799 Y63.404 E15.69091
G1 X133.367 Y63.21 E15.70666
G1 X132.98 Y62.928 E15.72259
G1 X132.656 Y62.57 E15.73865
G1 X132.418 Y62.155 E15.75456
G1 X132.269 Y61.699 E15.77051
G1 X132.218 Y61.22 E15.78654
G1 X132.269 Y60.741 E15.80256
G1 X132.418 Y60.285 E15.81851
G1 X132.658 Y59.869 E15.83449
G1 X132.982 Y59.509 E15.8506
G1 X133.371 Y59.228 E15.86656
G1 X133.811 Y59.034 E15.88255
G1 X134.284 Y58.934 E15.89863
G1 X134.76 Y58.935 E15.91446
G1 X135.232 Y59.036 E15.93052
G1 X135.673 Y59.234 E15.94659
G1 X136.053 Y59.51 E15.96221
G1 X136.379 Y59.871 E15.97839
G1 X136.617 Y60.285 E15.99428
G1 X136.766 Y60.741 E16.01023
G1 X136.816 Y61.22 E16.02625
G1 X136.766 Y61.7 E16.0423
G1 X136.62 Y62.15 E16.05804
G1 X136.377 Y62.572 E16.07423
G1 X136.053 Y62.931 E16.09032
G1 X135.663 Y63.212 E16.1063
G1 X135.224 Y63.407 E16.12228
G0 F3600 X135.029 Y63.447
G0 X134.98 Y62.649
;TYPE:SKIN
G1 F1800 X134.666 Y62.716 E16.13296
G1 X134.361 Y62.715 E16.1431
G1 X134.046 Y62.648 E16.15382
G1 X133.768 Y62.523 E16.16395
G1 X133.509 Y62.335 E16.1746
G1 X133.298 Y62.103 E16.18503
G1 X133.144 Y61.832 E16.1954
G1 X133.047 Y61.535 E16.20579
G1 X133.012 Y61.22 E16.21633
G1 X133.047 Y60.904 E16.2269
G1 X133.144 Y60.608 E16.23726
